images/1456.svg

<?xml version="1.0" encoding="UTF-8"?>
<svg xmlns="http://www.w3.org/2000/svg" xmlns:xlink="http://www.w3.org/1999/xlink" width="300pt" height="300pt" viewBox="0 0 300 300" version="1.1">
<defs>
<g>
<symbol overflow="visible" id="glyph0-0">
<path style="stroke:none;" d="M 0.796875 2.828125 L 0.796875 -11.28125 L 8.796875 -11.28125 L 8.796875 2.828125 Z M 1.703125 1.9375 L 7.90625 1.9375 L 7.90625 -10.390625 L 1.703125 -10.390625 Z M 1.703125 1.9375 "/>
</symbol>
<symbol overflow="visible" id="glyph0-1">
<path style="stroke:none;" d="M 1.578125 -11.671875 L 3.703125 -11.671875 L 8.875 -1.90625 L 8.875 -11.671875 L 10.40625 -11.671875 L 10.40625 0 L 8.28125 0 L 3.109375 -9.765625 L 3.109375 0 L 1.578125 0 Z M 1.578125 -11.671875 "/>
</symbol>
<symbol overflow="visible" id="glyph0-2">
<path style="stroke:none;" d="M 6.3125 -10.59375 C 5.164062 -10.59375 4.253906 -10.164062 3.578125 -9.3125 C 2.898438 -8.457031 2.5625 -7.296875 2.5625 -5.828125 C 2.5625 -4.359375 2.898438 -3.195312 3.578125 -2.34375 C 4.253906 -1.488281 5.164062 -1.0625 6.3125 -1.0625 C 7.457031 -1.0625 8.363281 -1.488281 9.03125 -2.34375 C 9.695312 -3.195312 10.03125 -4.359375 10.03125 -5.828125 C 10.03125 -7.296875 9.695312 -8.457031 9.03125 -9.3125 C 8.363281 -10.164062 7.457031 -10.59375 6.3125 -10.59375 Z M 6.3125 -11.875 C 7.945312 -11.875 9.253906 -11.328125 10.234375 -10.234375 C 11.210938 -9.140625 11.703125 -7.671875 11.703125 -5.828125 C 11.703125 -3.984375 11.210938 -2.507812 10.234375 -1.40625 C 9.253906 -0.3125 7.945312 0.234375 6.3125 0.234375 C 4.664062 0.234375 3.351562 -0.3125 2.375 -1.40625 C 1.394531 -2.507812 0.90625 -3.984375 0.90625 -5.828125 C 0.90625 -7.671875 1.394531 -9.140625 2.375 -10.234375 C 3.351562 -11.328125 4.664062 -11.875 6.3125 -11.875 Z M 6.3125 -11.875 "/>
</symbol>
</g>
</defs>
<g id="surface48745">
<rect x="0" y="0" width="300" height="300" style="fill:rgb(100%,100%,100%);fill-opacity:1;stroke:none;"/>
<path style="fill:none;stroke-width:1.2;stroke-linecap:butt;stroke-linejoin:miter;stroke:rgb(0%,0%,0%);stroke-opacity:1;stroke-miterlimit:10;" d="M 237.867188 157.097656 L 216.921875 189.105469 "/>
<path style="fill:none;stroke-width:1.2;stroke-linecap:butt;stroke-linejoin:miter;stroke:rgb(0%,0%,0%);stroke-opacity:1;stroke-miterlimit:10;" d="M 228.242188 155.371094 L 211.488281 180.976562 "/>
<path style="fill:none;stroke-width:1.2;stroke-linecap:butt;stroke-linejoin:miter;stroke:rgb(0%,0%,0%);stroke-opacity:1;stroke-miterlimit:10;" d="M 220.617188 122.957031 L 237.867188 157.097656 "/>
<path style="fill:none;stroke-width:1.2;stroke-linecap:butt;stroke-linejoin:miter;stroke:rgb(0%,0%,0%);stroke-opacity:1;stroke-miterlimit:10;" d="M 216.921875 189.105469 L 178.734375 186.972656 "/>
<path style="fill:none;stroke-width:1.2;stroke-linecap:butt;stroke-linejoin:miter;stroke:rgb(0%,0%,0%);stroke-opacity:1;stroke-miterlimit:10;" d="M 178.734375 186.972656 L 161.484375 152.832031 "/>
<path style="fill:none;stroke-width:1.2;stroke-linecap:butt;stroke-linejoin:miter;stroke:rgb(0%,0%,0%);stroke-opacity:1;stroke-miterlimit:10;" d="M 185.042969 179.5 L 171.242188 152.1875 "/>
<path style="fill:none;stroke-width:1.2;stroke-linecap:butt;stroke-linejoin:miter;stroke:rgb(0%,0%,0%);stroke-opacity:1;stroke-miterlimit:10;" d="M 161.484375 152.832031 L 182.429688 120.824219 "/>
<path style="fill:none;stroke-width:1.2;stroke-linecap:butt;stroke-linejoin:miter;stroke:rgb(0%,0%,100%);stroke-opacity:1;stroke-miterlimit:10;" d="M 123.292969 150.699219 L 142.390625 151.765625 "/>
<path style="fill:none;stroke-width:1.2;stroke-linecap:butt;stroke-linejoin:miter;stroke:rgb(0%,0%,0%);stroke-opacity:1;stroke-miterlimit:10;" d="M 142.390625 151.765625 L 161.484375 152.832031 "/>
<path style="fill:none;stroke-width:1.2;stroke-linecap:butt;stroke-linejoin:miter;stroke:rgb(0%,0%,0%);stroke-opacity:1;stroke-miterlimit:10;" d="M 182.429688 120.824219 L 220.617188 122.957031 "/>
<path style="fill:none;stroke-width:1.2;stroke-linecap:butt;stroke-linejoin:miter;stroke:rgb(0%,0%,0%);stroke-opacity:1;stroke-miterlimit:10;" d="M 185.746094 130.023438 L 216.296875 131.730469 "/>
<path style="fill:none;stroke-width:1.2;stroke-linecap:butt;stroke-linejoin:miter;stroke:rgb(0%,0%,0%);stroke-opacity:1;stroke-miterlimit:10;" d="M 182.429688 120.824219 L 173.804688 103.753906 "/>
<path style="fill:none;stroke-width:1.2;stroke-linecap:butt;stroke-linejoin:miter;stroke:rgb(0%,0%,100%);stroke-opacity:1;stroke-miterlimit:10;" d="M 173.804688 103.753906 L 165.179688 86.683594 "/>
<path style="fill:none;stroke-width:1.2;stroke-linecap:butt;stroke-linejoin:miter;stroke:rgb(0%,0%,100%);stroke-opacity:1;stroke-miterlimit:10;" d="M 165.179688 86.683594 L 146.085938 85.617188 "/>
<path style="fill:none;stroke-width:1.2;stroke-linecap:butt;stroke-linejoin:miter;stroke:rgb(0%,0%,0%);stroke-opacity:1;stroke-miterlimit:10;" d="M 146.085938 85.617188 L 126.988281 84.550781 "/>
<path style="fill:none;stroke-width:1.2;stroke-linecap:butt;stroke-linejoin:miter;stroke:rgb(0%,0%,100%);stroke-opacity:1;stroke-miterlimit:10;" d="M 160.859375 95.457031 L 145.582031 94.601562 "/>
<path style="fill:none;stroke-width:1.2;stroke-linecap:butt;stroke-linejoin:miter;stroke:rgb(0%,0%,0%);stroke-opacity:1;stroke-miterlimit:10;" d="M 145.582031 94.601562 L 130.304688 93.75 "/>
<path style=" stroke:none;fill-rule:nonzero;fill:rgb(100%,100%,100%);fill-opacity:1;" d="M 159.179688 77.183594 L 171.179688 77.183594 L 171.179688 96.183594 L 159.179688 96.183594 Z M 159.179688 77.183594 "/>
<g style="fill:rgb(0%,0%,100%);fill-opacity:1;">
  <use xlink:href="#glyph0-1" x="159.179688" y="92.035156"/>
</g>
<path style="fill:none;stroke-width:1.2;stroke-linecap:butt;stroke-linejoin:miter;stroke:rgb(0%,0%,0%);stroke-opacity:1;stroke-miterlimit:10;" d="M 126.988281 84.550781 L 106.046875 116.558594 "/>
<path style="fill:none;stroke-width:1.2;stroke-linecap:butt;stroke-linejoin:miter;stroke:rgb(0%,0%,0%);stroke-opacity:1;stroke-miterlimit:10;" d="M 106.046875 116.558594 L 87.148438 119.484375 "/>
<path style="fill:none;stroke-width:1.2;stroke-linecap:butt;stroke-linejoin:miter;stroke:rgb(0%,0%,100%);stroke-opacity:1;stroke-miterlimit:10;" d="M 87.148438 119.484375 L 68.246094 122.410156 "/>
<path style="fill:none;stroke-width:1.2;stroke-linecap:butt;stroke-linejoin:miter;stroke:rgb(0%,0%,0%);stroke-opacity:1;stroke-miterlimit:10;" d="M 103.644531 126.035156 L 88.523438 128.378906 "/>
<path style="fill:none;stroke-width:1.2;stroke-linecap:butt;stroke-linejoin:miter;stroke:rgb(0%,0%,100%);stroke-opacity:1;stroke-miterlimit:10;" d="M 88.523438 128.378906 L 73.40625 130.71875 "/>
<path style="fill:none;stroke-width:1.2;stroke-linecap:butt;stroke-linejoin:miter;stroke:rgb(0%,0%,100%);stroke-opacity:1;stroke-miterlimit:10;" d="M 123.292969 150.699219 L 114.671875 133.628906 "/>
<path style="fill:none;stroke-width:1.2;stroke-linecap:butt;stroke-linejoin:miter;stroke:rgb(0%,0%,0%);stroke-opacity:1;stroke-miterlimit:10;" d="M 114.671875 133.628906 L 106.046875 116.558594 "/>
<path style="fill:none;stroke-width:1.2;stroke-linecap:butt;stroke-linejoin:miter;stroke:rgb(0%,0%,100%);stroke-opacity:1;stroke-miterlimit:10;" d="M 68.246094 122.410156 L 65.191406 141.289062 "/>
<path style="fill:none;stroke-width:1.2;stroke-linecap:butt;stroke-linejoin:miter;stroke:rgb(100%,0%,0%);stroke-opacity:1;stroke-miterlimit:10;" d="M 65.191406 141.289062 L 62.132812 160.167969 "/>
<path style=" stroke:none;fill-rule:nonzero;fill:rgb(100%,100%,100%);fill-opacity:1;" d="M 62.246094 112.910156 L 74.246094 112.910156 L 74.246094 131.910156 L 62.246094 131.910156 Z M 62.246094 112.910156 "/>
<g style="fill:rgb(0%,0%,100%);fill-opacity:1;">
  <use xlink:href="#glyph0-1" x="62.246094" y="127.761719"/>
</g>
<path style="fill:none;stroke-width:1.2;stroke-linecap:butt;stroke-linejoin:miter;stroke:rgb(100%,0%,0%);stroke-opacity:1;stroke-miterlimit:10;" d="M 62.132812 160.167969 L 79.144531 168.910156 "/>
<path style="fill:none;stroke-width:1.2;stroke-linecap:butt;stroke-linejoin:miter;stroke:rgb(0%,0%,0%);stroke-opacity:1;stroke-miterlimit:10;" d="M 79.144531 168.910156 L 96.15625 177.652344 "/>
<path style=" stroke:none;fill-rule:nonzero;fill:rgb(100%,100%,100%);fill-opacity:1;" d="M 56.132812 150.667969 L 69.132812 150.667969 L 69.132812 169.667969 L 56.132812 169.667969 Z M 56.132812 150.667969 "/>
<g style="fill:rgb(100%,0%,0%);fill-opacity:1;">
  <use xlink:href="#glyph0-2" x="56.132812" y="165.519531"/>
</g>
<path style="fill:none;stroke-width:1.2;stroke-linecap:butt;stroke-linejoin:miter;stroke:rgb(0%,0%,0%);stroke-opacity:1;stroke-miterlimit:10;" d="M 91.707031 178.339844 L 94.636719 197.238281 "/>
<path style="fill:none;stroke-width:1.2;stroke-linecap:butt;stroke-linejoin:miter;stroke:rgb(100%,0%,0%);stroke-opacity:1;stroke-miterlimit:10;" d="M 94.636719 197.238281 L 97.5625 216.140625 "/>
<path style="fill:none;stroke-width:1.2;stroke-linecap:butt;stroke-linejoin:miter;stroke:rgb(0%,0%,0%);stroke-opacity:1;stroke-miterlimit:10;" d="M 100.601562 176.960938 L 103.527344 195.863281 "/>
<path style="fill:none;stroke-width:1.2;stroke-linecap:butt;stroke-linejoin:miter;stroke:rgb(100%,0%,0%);stroke-opacity:1;stroke-miterlimit:10;" d="M 103.527344 195.863281 L 106.457031 214.761719 "/>
<path style="fill:none;stroke-width:1.2;stroke-linecap:butt;stroke-linejoin:miter;stroke:rgb(0%,0%,0%);stroke-opacity:1;stroke-miterlimit:10;" d="M 96.15625 177.652344 L 109.726562 164.175781 "/>
<path style="fill:none;stroke-width:1.2;stroke-linecap:butt;stroke-linejoin:miter;stroke:rgb(0%,0%,100%);stroke-opacity:1;stroke-miterlimit:10;" d="M 109.726562 164.175781 L 123.292969 150.699219 "/>
<path style=" stroke:none;fill-rule:nonzero;fill:rgb(100%,100%,100%);fill-opacity:1;" d="M 96.007812 205.949219 L 109.007812 205.949219 L 109.007812 224.949219 L 96.007812 224.949219 Z M 96.007812 205.949219 "/>
<g style="fill:rgb(100%,0%,0%);fill-opacity:1;">
  <use xlink:href="#glyph0-2" x="96.007812" y="220.800781"/>
</g>
<path style=" stroke:none;fill-rule:nonzero;fill:rgb(100%,100%,100%);fill-opacity:1;" d="M 117.292969 141.199219 L 129.292969 141.199219 L 129.292969 160.199219 L 117.292969 160.199219 Z M 117.292969 141.199219 "/>
<g style="fill:rgb(0%,0%,100%);fill-opacity:1;">
  <use xlink:href="#glyph0-1" x="117.292969" y="156.050781"/>
</g>
</g>
</svg>

<svg xmlns="http://www.w3.org/2000/svg" xmlns:xlink="http://www.w3.org/1999/xlink" width="300pt" height="300pt" viewBox="0 0 300 300"><defs><symbol overflow="visible"><path d="M.797 2.828v-14.11h8V2.83zm.906-.89h6.203v-12.33H1.703zm0 0"/></symbol><symbol overflow="visible" id="a"><path d="M1.578-11.672h2.125l5.172 9.766v-9.766h1.53V0H8.282L3.11-9.766V0H1.577zm0 0"/></symbol><symbol overflow="visible" id="b"><path d="M6.313-10.594c-1.15 0-2.06.43-2.735 1.28-.68.857-1.015 2.017-1.015 3.486 0 1.47.335 2.633 1.015 3.484.676.856 1.586 1.28 2.735 1.28 1.144.002 2.05-.424 2.718-1.28.665-.85 1-2.015 1-3.484 0-1.47-.335-2.63-1-3.484-.667-.852-1.573-1.282-2.717-1.282zm0-1.28c1.632 0 2.94.546 3.92 1.64.978 1.093 1.47 2.562 1.47 4.406 0 1.844-.492 3.32-1.47 4.422-.98 1.093-2.288 1.64-3.92 1.64-1.65 0-2.96-.546-3.938-1.64-.98-1.102-1.47-2.578-1.47-4.422 0-1.844.49-3.313 1.47-4.406.977-1.094 2.29-1.64 3.938-1.64zm0 0"/></symbol></defs><g><path fill="#fff" d="M0 0h300v300H0z"/><path d="M237.867 157.098l-20.945 32.007M228.242 155.37l-16.754 25.607M220.617 122.957l17.25 34.14M216.922 189.105l-38.188-2.132M178.734 186.973l-17.25-34.14M185.043 179.5l-13.8-27.313M161.484 152.832l20.946-32.008" stroke-width="1.2" stroke="#000" stroke-miterlimit="10" fill="none"/><path d="M123.293 150.7l19.098 1.066" stroke-width="1.2" stroke="#00f" stroke-miterlimit="10" fill="none"/><path d="M142.39 151.766l19.094 1.066M182.43 120.824l38.187 2.133M185.746 130.023l30.55 1.707M182.43 120.824l-8.625-17.07" stroke-width="1.2" stroke="#000" stroke-miterlimit="10" fill="none"/><path d="M173.805 103.754l-8.625-17.07M165.18 86.684l-19.094-1.067" stroke-width="1.2" stroke="#00f" stroke-miterlimit="10" fill="none"/><path d="M146.086 85.617l-19.098-1.066" stroke-width="1.2" stroke="#000" stroke-miterlimit="10" fill="none"/><path d="M160.86 95.457l-15.278-.855" stroke-width="1.2" stroke="#00f" stroke-miterlimit="10" fill="none"/><path d="M145.582 94.602l-15.277-.852" stroke-width="1.2" stroke="#000" stroke-miterlimit="10" fill="none"/><path d="M159.18 77.184h12v19h-12zm0 0" fill="#fff"/><use xlink:href="#a" x="159.18" y="92.035" fill="#00f"/><path d="M126.988 84.55l-20.94 32.01M106.047 116.56l-18.9 2.924" stroke-width="1.2" stroke="#000" stroke-miterlimit="10" fill="none"/><path d="M87.148 119.484l-18.902 2.926" stroke-width="1.2" stroke="#00f" stroke-miterlimit="10" fill="none"/><path d="M103.645 126.035l-15.122 2.344" stroke-width="1.2" stroke="#000" stroke-miterlimit="10" fill="none"/><path d="M88.523 128.38l-15.117 2.34M123.293 150.7l-8.62-17.07" stroke-width="1.2" stroke="#00f" stroke-miterlimit="10" fill="none"/><path d="M114.672 133.63l-8.625-17.07" stroke-width="1.2" stroke="#000" stroke-miterlimit="10" fill="none"/><path d="M68.246 122.41l-3.055 18.88" stroke-width="1.2" stroke="#00f" stroke-miterlimit="10" fill="none"/><path d="M65.19 141.29l-3.057 18.878" stroke-width="1.2" stroke="#f00" stroke-miterlimit="10" fill="none"/><path d="M62.246 112.91h12v19h-12zm0 0" fill="#fff"/><use xlink:href="#a" x="62.246" y="127.762" fill="#00f"/><path d="M62.133 160.168l17.012 8.742" stroke-width="1.2" stroke="#f00" stroke-miterlimit="10" fill="none"/><path d="M79.145 168.91l17.01 8.742" stroke-width="1.2" stroke="#000" stroke-miterlimit="10" fill="none"/><path d="M56.133 150.668h13v19h-13zm0 0" fill="#fff"/><use xlink:href="#b" x="56.133" y="165.52" fill="#f00"/><path d="M91.707 178.34l2.93 18.898" stroke-width="1.2" stroke="#000" stroke-miterlimit="10" fill="none"/><path d="M94.637 197.238l2.925 18.903" stroke-width="1.2" stroke="#f00" stroke-miterlimit="10" fill="none"/><path d="M100.602 176.96l2.925 18.903" stroke-width="1.2" stroke="#000" stroke-miterlimit="10" fill="none"/><path d="M103.527 195.863l2.93 18.9" stroke-width="1.2" stroke="#f00" stroke-miterlimit="10" fill="none"/><path d="M96.156 177.652l13.57-13.476" stroke-width="1.2" stroke="#000" stroke-miterlimit="10" fill="none"/><path d="M109.727 164.176l13.566-13.477" stroke-width="1.2" stroke="#00f" stroke-miterlimit="10" fill="none"/><path d="M96.008 205.95h13v19h-13zm0 0" fill="#fff"/><use xlink:href="#b" x="96.008" y="220.801" fill="#f00"/><path d="M117.293 141.2h12v19h-12zm0 0" fill="#fff"/><use xlink:href="#a" x="117.293" y="156.051" fill="#00f"/></g></svg>
